X: 1
T: String Quartet in E Major opus 54 no 3 mvt 1
C: Franz Joseph Haydn
%%abc-version 2.0
%%abcx-abcm2ps-target-version 5.9.1 (29 Sep 2008)
%%abc-creator hum2abc beta
%%abcx-conversion-date 2021/02/14 14:38:32
%%abc-copyright Copyright (c) 1994, 2000 Center for Computer Assisted Research in the Humanities
%%abc-edited-by Frances Bennion
%%abcx-initial-encoding-date 1997/04/15
%%gracespace 0 6 6
%%humdrum-veritas 1701729226
%%humdrum-veritas-data 1717249079
%%linebreak <none>
%%barnumbers 0
L: 1/4
M: 2/2
N: Derived from op54n3-01.krn
Q: "Allegretto"
%%staves [1 2 3 4]
V: 1
V: 2
V: 3 clef=alto
V: 4 clef=bass
K: E
[V:1]z3 z [I:setbarnb1] |
[V:2]z3 G, |
[V:3]z3 z |
[V:4]z3 z |
[V:1]z3 e |
[V:2]A, B, C B, |
[V:3]F, G, A, G, |
[V:4]z4 |
[V:1]d B A F/D/ |
[V:2]A,4 |
[V:3]F,4 |
[V:4]B,,4 |
[V:1]E D E A |
[V:2]G, A, G, F |
[V:3]E, F, E, C |
[V:4]C, ^B,, C, A,, |
[V:1]G2 F z |
[V:2]E2 D G, |
[V:3]B,3 E, |
[V:4]B,,3 z |
[V:1]z3 e |
[V:2]A, B, C B, |
[V:3]F, G, A, G, |
[V:4]z4 |
[V:1]d B A F/D/ |
[V:2]A,4 |
[V:3]F,4 |
[V:4]B,,4 |
[V:1]E F B, C/D/ |
[V:2]G, C B, A, |
[V:3]E, A, G, F, |
[V:4]C, A,, B,, B,, |
[V:1]E z3 |
[V:2]G, A, B, e |
[V:3]E, F, G, [GB,] |
[V:4]E,,4- |
[V:1]z3 b |
[V:2]d B A F/D/ |
[V:3][F3A,3] D |
[V:4]E,,4- |
[V:1]a2 g =d' |
[V:2]F2 E G |
[V:3]D2 E B |
[V:4]E,,4- |
[V:1]c' a f d/B/ |
[V:2]A4 |
[V:3]c2 A F/D/ |
[V:4]E,,4- |
[V:1]e g b =d' |
[V:2]G4 |
[V:3]B, B G B |
[V:4]E,,4- |
[V:1]c' a f d/c//B// |
[V:2]A4 |
[V:3]c2 A F/D/ |
[V:4]E,,4- |
[V:1]e g b =d' |
[V:2]G4 |
[V:3]B, B G B |
[V:4]E,,4- |
[V:1](3^b/c'/c'/ (3g/a/a/ (3^e/f/f/ (3a/f/d/ |
[V:2]A4 |
[V:3]c2 A F |
[V:4]E,,4- |
[V:1](3e/B/A/ (3G/F/E/ (3D/E/G/ (3B/e/g/ |
[V:2]G z2 B |
[V:3]G z2 G |
[V:4]E,, z2 E, |
[V:1](3a/f/e/ (3d/c/B/ (3^A/B/f/ (3d/=A/f/ |
[V:2]B z2 B |
[V:3]F z2 A |
[V:4]D, z2 D, |
[V:1](3G/B/A/ (3G/F/E/ (3D/E/G/ (3B/e/g/ |
[V:2]B z2 B |
[V:3]G z2 G |
[V:4]E, z2 E, |
[V:1](3a/f/e/ (3d/c/B/ (3^A/B/f/ (3d/=A/f/ |
[V:2]B z2 B,- |
[V:3]F z2 F |
[V:4]D, z2 D, |
[V:1]A/G/ z/g/ B/A/ z/a/ |
[V:2]B, C2 D- |
[V:3]z G, z A, |
[V:4]E,2 F,2 |
[V:1]c/B/ z/b/ =d/c/ z/c'/ |
[V:2]D E2 F |
[V:3]z B, z C |
[V:4]G,2 A,2 |
[V:1]e3/ f//e// d z |
[V:2]G3/ A//G// F F |
[V:3]B,2 z D |
[V:4]B,3 z |
[V:1]z f f f |
[V:2]E D C E |
[V:3]C B, ^A, C |
[V:4]z3 F, |
[V:1]f/d'/ c'/b/ ^a/b/ a/b/ |
[V:2]D E F F |
[V:3]B, C D D |
[V:4]B,,2 z2 |
[V:1]f >>g f/>g/ f3//g// |
[V:2]E D C E |
[V:3]C B, ^A, C |
[V:4]z3 F, |
[V:1]f/d'/ c'/b/ ^a/b/ f/=a/ |
[V:2]D E F F |
[V:3]B, C D B |
[V:4]B,,3 D, |
[V:1]g2 ^b2 |
[V:2]G/B/ A/G/ F/A/ G/F/ |
[V:3]E z3 |
[V:4]E, E, D, D, |
[V:1]c'3 d' |
[V:2]E/G/ F/A/ G F |
[V:3]z3 G- |
[V:4]C, D, E, ^B,, |
[V:1]e' c' g c' |
[V:2]E F G G |
[V:3]G F E G |
[V:4]C, D, E, ^E, |
[V:1]b2 ^a g |
[V:2]F3 E |
[V:3]C3 B, |
[V:4]F, F,, F, G, |
[V:1]g2 f e |
[V:2]E2 F G |
[V:3]C4 |
[V:4]^A, A, A, A, |
[V:1](3d/b/^a/ (3g/f/e/ (3d/c/B/ (3^A/c/e/ |
[V:2]F2 z ^A |
[V:3]D2 z C |
[V:4]B,2 z F, |
[V:1]d z3 |
[V:2](3B/B/^A/ (3G/F/E/ (3D/C/B,/ (3^A,/C/E/ |
[V:3]B, z2 C |
[V:4]B, z2 F,, |
[V:1](3d/b/^a/ (3g/f/e/ (3d/c/B/ (3^A/B/c/ |
[V:2]D z2 E |
[V:3]B, z2 C/F/ |
[V:4]B,, z2 F, |
[V:1](3B/d/c/ (3B/d/c/ (3B/^A/G/ (3^^F/G/A/ |
[V:2]D2 z C |
[V:3]D2 z ^A, |
[V:4]G,2 z D, |
[V:1](3G/d/c/ (3B/^A/G/ (3F/^E/G/ (3B/G/E/ |
[V:2]B,2 z B, |
[V:3]B,2 z G, |
[V:4]G,2 z C, |
[V:1](3^E/F/^A/ (3E/F/B/ (3E/F/c/ (3E/F/d/ |
[V:2]^A, z3 |
[V:3]F, G, ^A, B, |
[V:4]F,2 z2 |
[V:1](3F/e/e/ (3e/e/e/ (3F/d/d/ (3d/d/d/ |
[V:2]c2 d2- |
[V:3]F4 |
[V:4]^A,,2 B,,2 |
[V:1](3G/g/g/ (3g/g/g/ (3^A/^a/a/ (3B/b/b/ |
[V:2]d2 c B |
[V:3]B,2 C =D |
[V:4]E,3 ^E, |
[V:1](3f/^e/g/ (3f/e/g/ (3f/e/g/ (3f/b/B/ |
[V:2]B2 z2 |
[V:3]D2 z2 |
[V:4]F,2 z2 |
[V:1]c4 |
[V:2]^A4 |
[V:3]E E E E |
[V:4]F, F, F, F, |
[V:1]B4- |
[V:2]B, C E D |
[V:3]B, C E D |
[V:4]B,, C, E, D, |
[V:1]B4 |
[V:2]F E G F |
[V:3]F E G F |
[V:4]F, E, G, F, |
[V:1]^B4 |
[V:2]F2 G A |
[V:3]D2 E D |
[V:4]A,2 G, F, |
[V:1]c g e c |
[V:2]G2 z2 |
[V:3]C2 z2 |
[V:4]E,2 z2 |
[V:1]B2 c/>B/ c3//d// |
[V:2]D2 E/>D/ E3//C// |
[V:3]D B, ^A, A, |
[V:4]F, F, F, F, |
[V:1]B4- |
[V:2]B, C E =D |
[V:3]B, C E =D |
[V:4]B,, C, E, =D, |
[V:1]B4 |
[V:2]F E =G F |
[V:3]F E =G F |
[V:4]F, E, =G, F, |
[V:1][=D3=c3] =c' |
[V:2]F2 A2 |
[V:3]=D2 F2 |
[V:4]A,2 =D,2 |
[V:1]b =g =d B |
[V:2]=D4 |
[V:3]=G B, B, B, |
[V:4]=G,4 |
[V:1]A F D a |
[V:2]D3 F |
[V:3]B,4- |
[V:4]F,3 D, |
[V:1]=g e B =G |
[V:2]B,4- |
[V:3]B, =G, G, G, |
[V:4]E,4 |
[V:1]E/D/ E/F/ =G F/E/ |
[V:2]B,2 ^A,2 |
[V:3]=G,2 E,2 |
[V:4]=C,4 |
[V:1]D F B A |
[V:2]B,2 D2 |
[V:3]F,4 |
[V:4]B,,4- |
[V:1]=G E =c E/^A,/ |
[V:2]E4 |
[V:3]=G,4 |
[V:4]B,,4- |
[V:1]B, D F B/A/ |
[V:2]D4 |
[V:3]F,4 |
[V:4]B,,4- |
[V:1]=G E =C E/^A,/ |
[V:2]E4 |
[V:3]=G,4 |
[V:4]B,,4- |
[V:1]B, B z2 |
[V:2]D z2 B, |
[V:3]F, z2 =G, |
[V:4]B,, z3 |
[V:1]z3 =g |
[V:2]=C =D E D |
[V:3]A, B, =C B, |
[V:4]z4 |
[V:1]f =d =c A/F/ |
[V:2]=C4 |
[V:3]A,4 |
[V:4]=D,4 |
[V:1]=G F G =c |
[V:2]B, =C B, A |
[V:3]=G, A, G, E |
[V:4]E, D, E, =C, |
[V:1]B2 A z |
[V:2]=G2 F B, |
[V:3]=D3 =G, |
[V:4]=D,3 z |
[V:1]z3 =g |
[V:2]=C =D E D |
[V:3]A, B, =C B, |
[V:4]z4 |
[V:1]f =d =c A/F/ |
[V:2]=C4 |
[V:3]A,4 |
[V:4]=D,4 |
[V:1]=G A =D E/F/ |
[V:2]B, E =D =C/A,/ |
[V:3]=G, =C B, A, |
[V:4]E, =C, =D, D, |
[V:1]=G4- |
[V:2]=G, A, =C B, |
[V:3]B, z3 |
[V:4]=G,, z3 |
[V:1]G4 |
[V:2]=D =C E D |
[V:3]=G, A, =C B, |
[V:4]z4 |
[V:1]G4 |
[V:2]=F2 E =D |
[V:3]=D2 =C B, |
[V:4]E,,4 |
[V:1]A4- |
[V:2]C z3 |
[V:3]A, B, =D C |
[V:4]A,,2 z2 |
[V:1]A4 |
[V:2]A, B, =D C |
[V:3]E =D F E |
[V:4]z4 |
[V:1]^A4 |
[V:2]E2 =D C |
[V:3]=G2 F E |
[V:4]F,,4 |
[V:1](3B/c/=d/ (3B/^e/f/ (3B/^a/b/ (3B/=d'/b/ |
[V:2]B, z2 =d |
[V:3]=D z2 F |
[V:4]B,,2 z B,, |
[V:1](3^a/b/c'/ (3e/=g/f/ (3e/=d/c/ (3B/^A/c/ |
[V:2]c z2 E |
[V:3]F z2 C |
[V:4]F, z2 F, |
[V:1](3B/c/=d/ (3B/^e/f/ (3B/^a/b/ (3B/=d'/b/ |
[V:2]=D z2 =d |
[V:3]=D z2 F |
[V:4]B,, z2 B,, |
[V:1](3^a/b/c'/ (3e/=g/f/ (3e/=d/c/ (3B/^A/c/ |
[V:2]c z2 E |
[V:3]F z2 C |
[V:4]F, z2 F, |
[V:1](3B/c/=d/ (3B/^e/f/ (3B/^a/b/ (3B/b/=a/ |
[V:2]=D z2 F |
[V:3]=D z2 B, |
[V:4]B,, z2 D, |
[V:1]=g z3 |
[V:2](3E/F/=G/ (3E/^A/B/ (3E/d/e/ (3E/c/=d/ |
[V:3]B, z2 B, |
[V:4]E, z2 G, |
[V:1](3A/^B/c/ (3A/d/e/ (3A/g/a/ (3A/f/=g/ |
[V:2]c z2 E |
[V:3]A, z2 A, |
[V:4]A, z2 C, |
[V:1](3f/a/=g/ (3f/e/=d/ (3c/B/A/ (3=G/F/E/ |
[V:2]F z2 (3E/F/=G/ |
[V:3]A, z2 C |
[V:4]=D, z2 A,, |
[V:1]=D z3 |
[V:2]F =D2 E |
[V:3]=D3 C |
[V:4](3=D,/A,/=G,/ (3F,/E,/D,/ (3C,/B,,/A,,/ (3=G,,/F,,/E,,/ |
[V:1]z3 a |
[V:2]F =G A =D |
[V:3]=D E F F, |
[V:4]=D,,/=D,/ D,,/D,/ D,,/D,/ D,,/D,/ |
[V:1]=g e c =G/E/ |
[V:2]C E =G E/C/ |
[V:3]E, C E C,/=G,/ |
[V:4]=D,,/=D,/ D,,/D,/ D,,/D,/ D,,/D,/ |
[V:1]=D E F a |
[V:2]=D z2 D |
[V:3]F, =G, A, F, |
[V:4]=D,,/=D,/ D,,/D,/ D,,/D,/ D,,/D,/ |
[V:1]=g e c/A/ =G/E/ |
[V:2]C E =G E/C/ |
[V:3]E, C E C,/=G,/ |
[V:4]=D,,/=D,/ D,,/D,/ D,,/D,/ D,,/D,/ |
[V:1]=D4 |
[V:2]=D A G A |
[V:3]F, F ^E F |
[V:4]=D,,4 |
[V:1]C4 |
[V:2]z/A/ G/A/ G/A/ G/A/ |
[V:3]z/F/ ^E/F/ E/F/ E/F/ |
[V:4]C,,4 |
[V:1]^B,4 |
[V:2]z/A/ G/A/ G/A/ B/A/ |
[V:3]z/F/ ^E/F/ E/F/ G/F/ |
[V:4]^B,,,4 |
[V:1]C z3 |
[V:2]G A B G |
[V:3]^E F G E |
[V:4]C,,/C,/ C,,/C,/ C,,/C,/ C,,/C,/ |
[V:1]z3 c' |
[V:2]A B c A |
[V:3]F G A F |
[V:4]C,,/C,/ C,,/C,/ C,,/C,/ C,,/C,/ |
[V:1]b g ^e =d/B/ |
[V:2]B c =d G, |
[V:3]G A B ^E, |
[V:4]C,,/C,/ C,,/C,/ C,,/C,/ C,,/C,/ |
[V:1]A ^E F c' |
[V:2]A, B, C A, |
[V:3]F, G, A, F, |
[V:4]C,,/C,/ C,,/C,/ C,,/C,/ C,,/C,/ |
[V:1]b g ^e =d/B/ |
[V:2]B, C =D G, |
[V:3]G, A, B, ^E, |
[V:4]C,,/C,/ C,,/C,/ C,,/C,/ C,,/C,/ |
[V:1]A ^E F c |
[V:2]A, B, C A |
[V:3]F, G, A, F |
[V:4]C,,/C,/ C,,/C,/ C,,/C,/ C,,/C,/ |
[V:1]B A G B |
[V:2]G F ^E G |
[V:3]G A B C |
[V:4]C,,/C,/ C,,/C,/ C,, ^E, |
[V:1]A G A =c |
[V:2]F ^E F A |
[V:3]=D3 ^D |
[V:4]F,3 F, |
[V:1]B ^A B =d |
[V:2]=G F G B |
[V:3]E3 ^E |
[V:4]=G,3 ^G, |
[V:1]c ^B c e |
[V:2]A G A c |
[V:3]F3 ^^F |
[V:4]A,3 G, |
[V:1]d ^^c d g |
[V:2]^B ^^A B G |
[V:3]G z2 ^B, |
[V:4]G,4- |
[V:1]g2 f2- |
[V:2]A G A B |
[V:3]C ^B, C D |
[V:4]G,4 |
[V:1]f2 e2- |
[V:2]G F G A |
[V:3]^B, ^A, B, C |
[V:4]G,,4- |
[V:1]e2 d2- |
[V:2]F E F G |
[V:3]^A, G, A, ^B, |
[V:4]G,,4- |
[V:1]d2 c2 |
[V:2]E D E/G/ F/E/ |
[V:3]C ^B, C C |
[V:4]G,,4- |
[V:1]^B G ^^F E/C/ |
[V:2]D ^B, C2 |
[V:3]G, D, E,2 |
[V:4]G,,4- |
[V:1]^B, G ^^F E/C/ |
[V:2]^B,2 C2 |
[V:3]D,2 E,2 |
[V:4]G,,4- |
[V:1]^B, G ^^F E/C/ |
[V:2]^B,2 C2 |
[V:3]D,2 E,2 |
[V:4]G,,4- |
[V:1]^B, G z2 |
[V:2]^B, z2 G, |
[V:3]D, z2 E, |
[V:4]G,, z3 |
[V:1]z3 e |
[V:2]A, B, C B, |
[V:3]F, G, A, G, |
[V:4]z4 |
[V:1]d B A F/D/ |
[V:2]A,4 |
[V:3]F,4 |
[V:4]B,,4 |
[V:1]E D E A |
[V:2]G, A, G, F |
[V:3]E, F, E, C |
[V:4]C, ^B,, C, A,, |
[V:1]G2 F G |
[V:2]E2 D E |
[V:3]B,3 z |
[V:4]B,,3 z |
[V:1]A B c B |
[V:2]F G A G |
[V:3]z4 |
[V:4]z3 E |
[V:1]a4 |
[V:2]f4 |
[V:3]B4 |
[V:4]D B, A, F,/D,/ |
[V:1]g f e f/d/ |
[V:2]e c/A/ G A/F/ |
[V:3]E A, B, B, |
[V:4]E, A,, B,, B,, |
[V:1]e z3 |
[V:2]E F G e |
[V:3]G, A, B, [GB,] |
[V:4]E,,4- |
[V:1]z3 b |
[V:2]d B A F/D/ |
[V:3][F3A,3] D |
[V:4]E,,4- |
[V:1]a2 g =d' |
[V:2]F2 E G |
[V:3]D2 E B |
[V:4]E,,4- |
[V:1]c' a f d/B/ |
[V:2]A4 |
[V:3]c2 A F/D/ |
[V:4]E,,4- |
[V:1]e g b =d' |
[V:2]G4 |
[V:3]B, B G B |
[V:4]E,,4- |
[V:1]c' a f d/c//B// |
[V:2]A4 |
[V:3]c2 A F/D/ |
[V:4]E,,4- |
[V:1]e g b =d' |
[V:2]G4 |
[V:3]B, B G B |
[V:4]E,,4- |
[V:1](3^b/c'/c'/ (3g/a/a/ (3^e/f/f/ (3a/f/d/ |
[V:2]A4 |
[V:3]c2 A F |
[V:4]E,,4- |
[V:1](3e/B/A/ (3G/F/E/ (3D/E/G/ (3B/e/g/ |
[V:2]G z2 B |
[V:3]G z2 G |
[V:4]E,, z2 E, |
[V:1](3a/f/e/ (3d/c/B/ (3^A/B/f/ (3d/=A/f/ |
[V:2]B z2 B |
[V:3]F z2 A |
[V:4]D, z2 D, |
[V:1](3G/B/A/ (3G/F/E/ (3D/E/G/ (3B/e/g/ |
[V:2]B z2 B |
[V:3]G z2 G |
[V:4]E, z2 E, |
[V:1](3a/f/e/ (3d/c/B/ (3^A/B/f/ (3d/=A/f/ |
[V:2]B z2 B,- |
[V:3]F z2 F |
[V:4]D, z2 D, |
[V:1]A/G/ z/g/ B/A/ z/a/ |
[V:2]B, C2 D- |
[V:3]z G, z A, |
[V:4]E,2 F,2 |
[V:1]c/B/ z/b/ =d/c/ z/c'/ |
[V:2]D E2 F |
[V:3]z B, z C |
[V:4]G,2 A,2 |
[V:1]f/^e/ z/=d' c' b/- |
[V:2]B, A G2 |
[V:3]z F ^E2 |
[V:4]G, F, ^E,2 |
[V:1]b/a/ z/c'/ z/b/ z/a/- |
[V:2]A G F E |
[V:3]F E D C |
[V:4]F, z3 |
[V:1]a/g f e d/- |
[V:2]D c B A |
[V:3]B, A G F |
[V:4]z4 |
[V:1]d/c B3//- (3:2:6B/8^A/c/ e/c/ A/|
[V:2]G F E2 |
[V:3]E D C2 |
[V:4]z4 |
[V:1](3B/d/c/ (3B/a/g/ (3f/e/d/ (3c/B/A/ |
[V:2]F4 |
[V:3]D4 |
[V:4]B,,4- |
[V:1](3G/g/f/ (3e/b/a/ (3g/f/e/ (3d/c/B/ |
[V:2]G4 |
[V:3]E4 |
[V:4]B,,4- |
[V:1](3A/d/c/ (3B/f/e/ (3d/f/g/ (3a/g/f/ |
[V:2]A3 d |
[V:3]F4 |
[V:4]B,,4 |
[V:1](3g/e'/d'/ (3c'/b/a/ (3g/f/e/ (3d/f/a/ |
[V:2]e z2 d |
[V:3]E z2 F |
[V:4]E, z2 B,, |
[V:1]g z3 |
[V:2](3e/e/d/ (3c/B/A/ (3G/F/E/ (3D/F/A/ |
[V:3]E z2 F |
[V:4]E, z2 B,, |
[V:1](3g/e'/d'/ (3c'/b/a/ (3g/f/e/ (3d/e/f/ |
[V:2]G z2 A |
[V:3]E z2 F,/B,/ |
[V:4]E, z2 B,, |
[V:1](3e/g/f/ (3e/g/f/ (3e/d/c/ (3^B/c/d/ |
[V:2]G2 z F |
[V:3]G,2 z D |
[V:4]C,2 z G, |
[V:1](3c/g/f/ (3e/d/c/ (3B/^A/c/ (3e/c/A/ |
[V:2]E2 z E |
[V:3]E2 z C |
[V:4]C,2 z F, |
[V:1](3B/d/B/ (3e/B/e/ (3f/B/f/ (3g/B/g/ |
[V:2]D z3 |
[V:3]B, C D E |
[V:4]B,,2 z2 |
[V:1](3B/a/a/ (3a/a/a/ (3B/g/g/ (3g/g/g/ |
[V:2]f2 g2- |
[V:3]B3 B, |
[V:4]D,2 E,2 |
[V:1](3c/c'/c'/ (3c'/c'/c'/ (3d/d'/d'/ (3e/e'/e'/ |
[V:2]g2 f e |
[V:3]E2 F =G |
[V:4]A,,3 ^A,, |
[V:1](3b/^a/c'/ (3b/a/c'/ (3b/a/c'/ (3b/e'/e/ |
[V:2]e2 z2 |
[V:3]G2 z2 |
[V:4]B,,2 z2 |
[V:1]f4 |
[V:2]d4 |
[V:3]A A A A |
[V:4]B,, B,, B,, B,, |
[V:1]e4- |
[V:2]E F A G |
[V:3]E, F, A, G, |
[V:4]E,, F,, A,, G,, |
[V:1]e4 |
[V:2]B A c B |
[V:3]B, A, C B, |
[V:4]B,, A,, C, B,, |
[V:1]^e4 |
[V:2]B2 c =d |
[V:3]G2 A G |
[V:4]=D,2 C, B,, |
[V:1]f c' a f |
[V:2]c2 z2 |
[V:3]F2 z2 |
[V:4]A,,2 z2 |
[V:1]e2 f/>e/ f3//g// |
[V:2]G2 A/>G/ A3//F// |
[V:3]G E D D |
[V:4]B,, B,, B,, B,, |
[V:1]e4- |
[V:2]E F A =G |
[V:3]E, F, A, =G, |
[V:4]E,, F,, A,, =G,, |
[V:1]e4 |
[V:2]B A =c B |
[V:3]B, A, =C B, |
[V:4]B,, A,, =C, B,, |
[V:1]=f3 =f' |
[V:2]B3 =d |
[V:3][=G,4=D4] |
[V:4][=G,,4=D,4] |
[V:1]e' =c' =g e |
[V:2]=G4 |
[V:3]E E E E |
[V:4]=C,4 |
[V:1]=d B G =d' |
[V:2]G3 B |
[V:3]E4- |
[V:4]B,,3 G,, |
[V:1]=c' a e =c |
[V:2]E4 |
[V:3]E =C C C |
[V:4]A,,4- |
[V:1]A =c'/b/ a/=g/ f/e/ |
[V:2]F4- |
[V:3]=C4 |
[V:4]A,,4 |
[V:1]d B B B |
[V:2]F z3 |
[V:3]B, z3 |
[V:4]B,, z3 |
[V:1]B4- |
[V:2]B, C E D |
[V:3]z4 |
[V:4]z4 |
[V:1]B4- |
[V:2]F E G F |
[V:3]B, C E D |
[V:4]z4 |
[V:1]B4- |
[V:2]A4 |
[V:3]F4 |
[V:4]B,,/C,/ E,/D,/ F,/E,/ G,/F,/ |
[V:1]B/c/ e/d/ f/e/ g/f/ |
[V:2]F4 |
[V:3]D4 |
[V:4]A,4 |
[V:1]a3 f |
[V:2]z4 |
[V:3]z4 |
[V:4]z4 |
[V:1]d/e/ g/f/ a/g/ b/a/ |
[V:2]F4 |
[V:3]B,4 |
[V:4]A,4 |
[V:1]c'2 a f |
[V:2]z4 |
[V:3]z4 |
[V:4]z4 |
[V:1]d4 |
[V:2]z4 |
[V:3]z4 |
[V:4]z4 |
[V:1]e4- |
[V:2]e =d B =c |
[V:3]E =D B, =C |
[V:4]E, =D, B,, =C, |
[V:1]e4 |
[V:2]^A B F =G |
[V:3]^A, B, F, =G, |
[V:4]^A,, B,, F,, =G,, |
[V:1]=f e =g f |
[V:2]=F E =G F |
[V:3]=C4- |
[V:4][A,,4-=F,4] |
[V:1]_b a =g =f |
[V:2]_B A =G =F |
[V:3]C4 |
[V:4][A,,4F,4] |
[V:1]e4- |
[V:2]=G4- |
[V:3]C4- |
[V:4]^A,,4- |
[V:1]e e e e |
[V:2]G =G G G |
[V:3]C C C C |
[V:4]A,, ^A,, A,, A,, |
[V:1][G2e2B2] z G |
[V:2]G2 z E |
[V:3]B,2 z2 |
[V:4]B,,2 z2 |
[V:1]A B c B |
[V:2]F G A G |
[V:3]z4 |
[V:4]z3 E |
[V:1]a4 |
[V:2]f4 |
[V:3]B4- |
[V:4]D B, A, F,/D,/ |
[V:1]g f e f |
[V:2]e d e c/A/ |
[V:3]B A G A |
[V:4]E, B,, C, A,, |
[V:1]e2 d G |
[V:2]G2 F E |
[V:3]B2 z2 |
[V:4]B,, B, B,, z |
[V:1]A B c B |
[V:2]F G A G |
[V:3]z4 |
[V:4]z3 E |
[V:1]a4 |
[V:2]f4 |
[V:3]B4 |
[V:4]D B, A, F,/D,/ |
[V:1]g f e f/d/ |
[V:2]e c/A/ G A/F/ |
[V:3]E A, B, B, |
[V:4]E, A,, B,, B,, |
[V:1]e z2 (3e/f/e/ |
[V:2]G A B G |
[V:3]E F G E |
[V:4]E,,4- |
[V:1](3d/e/d/ (3B/c/B/ (3A/B/A/ (3F/A/D/ |
[V:2][A4D4] |
[V:3]F4 |
[V:4]E,,4- |
[V:1](3E/G/B/ (3B/B/B/ (3B/c/d/ (3e/g/e/ |
[V:2]G A B G |
[V:3]E F G E |
[V:4]E,,4- |
[V:1](3d/e/d/ (3B/c/B/ (3A/B/A/ (3F/A/D/ |
[V:2][A4D4] |
[V:3]F4 |
[V:4]E,,4 |
[V:1]E z2 (3e/f/e/ |
[V:2]G/G/ z/A/ z/B/ z/G/ |
[V:3]E/E/ z/F/ z/G/ z/E/ |
[V:4]E, E,, E, E,, |
[V:1](3d/e/d/ (3B/c/B/ (3A/B/A/ (3F/A/D/ |
[V:2]z/A/ z/A/ z/A/ z/A/ |
[V:3]z/F/ z/F/ z/F/ z/F/ |
[V:4]B,, D, F, B, |
[V:1](3E/G/B/ (3B/B/B/ (3B/c/d/ (3e/g/e/ |
[V:2]z/G/ z/A/ z/B/ z/G/ |
[V:3]z/E/ z/F/ z/G/ z/E/ |
[V:4]E, E,, E, E,, |
[V:1](3d/e/d/ (3B/c/B/ (3A/B/A/ (3F/A/D/ |
[V:2]z/A/ z/A/ z/A/ z/A/ |
[V:3]z/F/ z/F/ z/F/ z/F/ |
[V:4]B,, D, F, B, |
[V:1]E z [e2B2E2] |
[V:2]G z [e2E2B2] |
[V:3]E z E,2 |
[V:4]E, z E,,2 |
[V:1][e2E2B2] z2 |]
[V:2][B2E2e2] z2 |]
[V:3]E,2 z2 |]
[V:4]E,,2 z2 |]

